X: 189
P: Longways for as many as will
M: 3/4
L: 1/8
K: D
|:\
|:\
ec/d/ ec Ae | fd/e/ fd fa | ^g2 e2 ga | a3 g a2 |\
aa/g/ fafd | ff/e/ dfdA | df eagf | e3 d d2 :|

